!!!COM:	la Rue, Pierre de
!!!CDT:	~1452///-1518/11/20
!!!OPR:	Missa Tous les regretz
!!!ONM:	5
!!!OTL:	Agnus Dei
!!!AGN:	Mass; Agnus Dei
!!!SCT:	Rue1031e
!!!SCA:	Rue1031e
!!!voices:	4
**kern	**kern	**kern	**kern
*staff4	*staff3	*staff2	*staff1
*Ivox	*Ivox	*Ivox	*Ivox
*I"Bassus	*I"Tenor	*I"Contra	*I"Discantus
*I'B	*I'T	*I'C	*I'D
*>[A,B,C]	*>[A,B,C]	*>[A,B,C]	*>[A,B,C]
*>A	*>A	*>A	*>A
*clefF4	*clefGv2	*clefGv2	*clefG2
*k[]	*k[]	*k[]	*k[]
*M2/1	*M2/1	*M2/1	*M2/1
*met(C2)	*met(C2)	*met(C2)	*met(C2)
=1-	=1-	=1-	=1-
!!section: Agnus Dei I
!!!OMD: Agnus Dei I
0r	0r	0d	0r
=2.	=2.	=2.	=2.
0r	0r	1d	0r
.	.	2d\	.
.	.	4c\	.
.	.	4B\	.
=3	=3	=3	=3
0r	0r	2d\	0a
.	.	2.c\	.
.	.	4B\	.
.	.	4A/	.
.	.	4G/	.
=4.	=4.	=4.	=4.
0D	0r	1F	1a
.	.	2A/	2a/
.	.	2B\	4g/
.	.	.	4f/
=5	=5	=5	=5
1C	0r	2.c\	2a/
.	.	.	2.g/
.	.	4B\	.
1C	.	2G/	.
.	.	.	4f/
.	.	[2A/	4e/
.	.	.	4d/
=6.	=6.	=6.	=6.
2AA/	0A	2A/]	0c
2.C/	.	4G/	.
.	.	4F/	.
.	.	1E	.
4BB/	.	.	.
4AA/	.	.	.
4GG/	.	.	.
=7	=7	=7	=7
1FF	1A	1r	1r
1F	1A	1c	1a
=8.	=8.	=8.	=8.
1F	1.A	1d	1a
1D	.	1f	1a
.	4G/	.	.
.	4F/	.	.
=9	=9	=9	=9
1C	2A/	1e	1.cc
.	2.G/	.	.
2.C/	.	[1c	.
.	4F/	.	.
.	4E/	.	2cc\
4BB/	4D/	.	.
=10.	=10.	=10.	=10.
2AA/	2C/	2c\]	1cc
2FF/	1F	4B\	.
.	.	4A/	.
1GG	.	1G	1b-i
.	2E/	.	.
=11	=11	=11	=11
0FF	0F	2r	1.a
.	.	1c	.
.	.	4B\	4g/
.	.	4A/	4f/
=12.	=12.	=12.	=12.
0r	1r	2B\	2g/
.	.	2.c\	2.a/
.	1A	.	.
.	.	4B\	4g/
.	.	4A/	2e/
.	.	4G/	.
=13	=13	=13	=13
2r	1A	0F	2f/
1F	.	.	1a
.	1A	.	.
4E\	.	.	4g/
4D\	.	.	4f/
=14.	=14.	=14.	=14.
1C	1.c	0r	2a/
.	.	.	2.g/
1C	.	.	.
.	.	.	4f/
.	2c\	.	4e/
.	.	.	4d/
=15	=15	=15	=15
1F	1c	0r	2c/
.	.	.	1f
1G	1B	.	.
.	.	.	2e/
=16.	=16.	=16.	=16.
0F	0A	1c	0f
.	.	2.c\	.
.	.	4B\	.
=17	=17	=17	=17
2.F\	0r	2c\	0r
.	.	2.d\	.
4E\	.	.	.
2F\	.	.	.
.	.	4c\	.
[2G\	.	4B\	.
.	.	4A/	.
=18.	=18.	=18.	=18.
4G\]	0r	2G/	0r
4F\	.	.	.
4E\	.	2G/	.
4D\	.	.	.
1C	.	2.c\	.
.	.	4d\	.
=19	=19	=19	=19
2r	0r	2e\	0r
2C/	.	2e\	.
2.F\	.	2d\	.
.	.	4c\	.
4G\	.	4B\	.
=20.	=20.	=20.	=20.
2A\	0r	4c\	0r
.	.	4A/	.
2A\	.	2c\	.
2G\	.	4B\	.
.	.	4c\	.
4F\	.	4d\	.
4E\	.	4e\	.
=21	=21	=21	=21
4F\	0F	2d\	1r
4E\	.	.	.
4D\	.	1c	.
4C/	.	.	.
1D	.	.	1f
.	.	2B\	.
=22.	=22.	=22.	=22.
0C	1G	1c	1e
.	1G	1c	1e
=23	=23	=23	=23
0GG	0G	0d	1d
.	.	.	1g
=24.	=24.	=24.	=24.
1D	[0A	0r	1f
2C/	.	.	2e/
[2D\	.	.	[2f/
=25	=25	=25	=25
2D\]	0A]	0r	2f/]
4C/	.	.	4e/
4BB/	.	.	4d/
1AA	.	.	2.c/
.	.	.	4d/
=26.	=26.	=26.	=26.
0r	2.A/	0r	2e/
.	.	.	2.f/
.	4G/	.	.
.	2A/	.	.
.	.	.	4e/
.	[2B\	.	4d/
.	.	.	4c/
=27	=27	=27	=27
0r	4B\]	1r	4d/
.	4A/	.	4c/
.	1A	.	4B/
.	.	.	4A/
.	.	1d	1B
.	2G#i/	.	.
=28.	=28.	=28.	=28.
2.AA/	[0A	2.c\	0A
4BB/	.	4d\	.
2C/	.	2e\	.
[2D\	.	[2f\	.
=29	=29	=29	=29
2D\]	0A]	2f\]	1r
2E\	.	1e	.
1F	.	.	1a
.	.	2d\	.
=30.	=30.	=30.	=30.
[0E	0r	1e	2.g/
.	.	.	4a/
.	.	2e\	2b\
.	.	[2e\	2cc\
=31	=31	=31	=31
0E]	0r	2e\]	2b\
.	.	4d\	1a
.	.	4c\	.
.	.	1B	.
.	.	.	2g#i/
=32.	=32.	=32.	=32.
2.AA/	1r	2A/	0a
.	.	1c	.
4BB/	.	.	.
2C/	1A	.	.
[2D\	.	4B\	.
.	.	4A/	.
=33	=33	=33	=33
4D\]	1d	2B\	1r
4C/	.	.	.
4BB/	.	1A	.
4AA/	.	.	.
1BB	1d	.	1b
.	.	2G#i/	.
=34.	=34.	=34.	=34.
0AA	0c	[0A	1.cc
.	.	.	2b\
=35	=35	=35	=35
1r	1r	0A]	2a/
.	.	.	2g/
1A	1c	.	2f/
.	.	.	2e/
=36.	=36.	=36.	=36.
1.B	1.d	1r	1d
.	.	1G	[1g
2A\	2c\	.	.
=37	=37	=37	=37
2G\	2B\	1G	1g]
2F\	2A/	.	.
2E\	2G/	1G	1g
2D\	2F/	.	.
=38.	=38.	=38.	=38.
2C/	2E/	1G	1g
2BB/	2D/	.	.
2AA/	2A/	2C/	2f/
2GG/	[2B\	[2G/	[2e/
=39	=39	=39	=39
1AA	2B\]	4G/]	2e/]
.	.	4F/	.
.	1A	1E	4d/
.	.	.	4c/
1BB	.	.	1d
.	2G/	2D/	.
=40.	=40.	=40.	=40.
1AA	1A	1E	1c
1AA	1A	1c	1f
=41	=41	=41	=41
0GG	1.B	1.d	1.g
.	2A/	2c\	2f/
=42.	=42.	=42.	=42.
1GG	2G/	1B	2e/
.	2F/	.	2d/
2AA/	2E/	2A/	2c/
[2BB/	2D/	2G/	[2d/
=43	=43	=43	=43
2BB/]	0E	1B	2d/]
2GG/	.	.	4c#i/
.	.	.	4B/
1AA	.	1A	1c#i
=44.	=44.	=44.	=44.
0Dl	0Dl	0Al	0dl
!!LO:LB:i:g=z
=45||	=45||	=45||	=45||
*>B	*>B	*>B	*>B
*clefF4	*clefGv2	*clefGv2	*clefG2
*k[]	*k[]	*k[]	*k[]
*M2/1	*M2/1	*M2/1	*M2/1
*met(C2)	*met(C2)	*met(C2)	*met(C2)
!!section: Agnus Dei II
!!!OMD: Agnus Dei II
0r	0r	1.d	1.d
.	.	4c\	2e/
.	.	4B\	.
=46.	=46.	=46.	=46.
0r	0r	1A	1f
.	.	1B	1g
=47	=47	=47	=47
0r	0r	1c	1e
.	.	[1d	1d
=48.	=48.	=48.	=48.
0r	0r	2d\]	1r
.	.	4c\	.
.	.	4B\	.
.	.	1c	[1a
=49	=49	=49	=49
0r	0r	1d	2a/]
.	.	.	4g/
.	.	.	4f/
.	.	1e	1g
=50.	=50.	=50.	=50.
0r	0r	1f	1a
.	.	1d	1b
=51	=51	=51	=51
0r	0r	1c	1cc
.	.	1f	1a
=52.	=52.	=52.	=52.
0r	0r	2e\	1g
.	.	1e	.
.	.	.	1cc
.	.	4d\	.
.	.	4c\	.
=53	=53	=53	=53
0r	0r	2d\	2b\
.	.	2.e\	1b
.	.	4d\	.
.	.	4c\	4a/
.	.	4B\	4g/
=54.	=54.	=54.	=54.
0r	0r	2A/	2a/
.	.	2.d\	2.b\
.	.	4c\	4a/
.	.	[2c\	4g/
.	.	.	4f/
=55	=55	=55	=55
0r	0r	2c\]	2e/
.	.	4B\	1a
.	.	4A/	.
.	.	1B	.
.	.	.	2g#i/
=56.	=56.	=56.	=56.
0r	0r	[0A	0a
=57	=57	=57	=57
0r	0r	0A]	1r
.	.	.	1e
=58.	=58.	=58.	=58.
0r	0r	1r	1e
.	.	1A	1e
=59	=59	=59	=59
0r	0r	1A	1.f
.	.	1A	.
.	.	.	2e/
=60.	=60.	=60.	=60.
0r	0r	1.B	2d/
.	.	.	1g
.	.	2A/	2f/
=61	=61	=61	=61
0r	0r	2G/	2.e/
.	.	1c	.
.	.	.	4d/
.	.	.	2c/
.	.	2B\	[2f/
=62.	=62.	=62.	=62.
0r	0r	2A/	2f/]
.	.	2G/	2e/
.	.	1F	2d/
.	.	.	2c/
=63	=63	=63	=63
0r	0r	2r	2B-i/
.	.	1B-i	1g
.	.	2A/	2f/
=64.	=64.	=64.	=64.
0r	0r	2G/	2e/
.	.	2F/	2d/
.	.	2E/	2c/
.	.	4D/	2B/
.	.	4E/	.
=65	=65	=65	=65
0r	0r	4F/	1A
.	.	4G/	.
.	.	1A	.
.	.	.	1B
.	.	2G#i/	.
=66.	=66.	=66.	=66.
0r	0r	1A	0A
.	.	2r	.
.	.	[2A/	.
=67	=67	=67	=67
0r	0r	2A/]	1r
.	.	4G/	.
.	.	4F/	.
.	.	2G/	2r
.	.	[2A/	[2c/
=68.	=68.	=68.	=68.
0r	0r	2A/]	2c/]
.	.	4G/	4B/
.	.	4F/	4A/
.	.	2G/	2B/
.	.	[2A/	[2c/
=69	=69	=69	=69
0r	0r	2A/]	4c/]
.	.	.	4d/
.	.	4G/	4e/
.	.	4F/	4f/
.	.	2G/	2d/
.	.	2A/	2c/
=70.	=70.	=70.	=70.
0r	0r	2D/	2r
.	.	2A/	2f/
.	.	2B\	2.g/
.	.	2c\	.
.	.	.	4f/
=71	=71	=71	=71
0r	0r	2.d\	4d/
.	.	.	4e/
.	.	.	1f
.	.	4c\	.
.	.	4A/	.
.	.	4B\	.
.	.	2c\	4c/
.	.	.	4d/
=72.	=72.	=72.	=72.
0r	0r	2A/	4e/
.	.	.	4f/
.	.	4G/	2.g/
.	.	4A/	.
.	.	4B-i\	.
.	.	4A/	4f/
.	.	4G/	4e/
.	.	4F/	4d/
=73	=73	=73	=73
0r	0r	4G/	2e/
.	.	4F/	.
.	.	4E/	1d
.	.	4D/	.
.	.	1E	.
.	.	.	2c#i/
=74.	=74.	=74.	=74.
0r	0r	0Dl	0dl
!!LO:LB:i:g=z
=75||	=75||	=75||	=75||
*>C	*>C	*>C	*>C
*clefF4	*clefGv2	*clefGv2	*clefG2
*k[]	*k[]	*k[]	*k[]
*M2/1	*M2/1	*M2/1	*M2/1
*met(C2)	*met(C2)	*met(C2)	*met(C2)
!!section: Agnus Dei III
!!!OMD: Agnus Dei III
1.D	1r	0r	0r
.	1A	.	.
2E\	.	.	.
=76.	=76.	=76.	=76.
1F	1A	0r	0r
1G	1B	.	.
=77	=77	=77	=77
2F\	1.A	0r	0r
1D	.	.	.
4C/	2B\	.	.
4BB/	.	.	.
=78.	=78.	=78.	=78.
2AA/	1c	0r	0r
2C/	.	.	.
1BB	1d	.	.
=79	=79	=79	=79
0AA	2c\	0r	0r
.	1A	.	.
.	4G/	.	.
.	4F/	.	.
=80.	=80.	=80.	=80.
1r	2E/	0r	0r
.	2G/	.	.
[1AA	1F	.	.
=81	=81	=81	=81
2AA/]	1.E	0r	0r
2GG/	.	.	.
2AA/	.	.	.
2BB/	2D/	.	.
=82.	=82.	=82.	=82.
2.C/	2E/	0r	0r
.	2F/	.	.
4D\	.	.	.
4E\	2.G/	.	.
4F\	.	.	.
[2G\	.	.	.
.	4A/	.	.
=83	=83	=83	=83
2G\]	4B\	0r	0r
.	4c\	.	.
4F\	2.d\	.	.
4E\	.	.	.
2.D\	.	.	.
.	4c\	.	.
.	4B\	.	.
4C/	4A/	.	.
=84.	=84.	=84.	=84.
4D\	2B\	1r	0r
4C/	.	.	.
4BB/	1A	.	.
4AA/	.	.	.
1BB	.	1d	.
.	2G#i/	.	.
=85	=85	=85	=85
2AA/	0A	2.c\	0r
1A	.	.	.
.	.	4B\	.
.	.	4c\	.
.	.	4d\	.
4G\	.	4e\	.
4F\	.	4f\	.
=86.	=86.	=86.	=86.
4G\	1r	2e\	0r
4F\	.	.	.
4E\	.	1d	.
4D\	.	.	.
1E	1G	.	.
.	.	2c#i\	.
=87	=87	=87	=87
[0D	1A	0d	1r
.	1A	.	1f
=88.	=88.	=88.	=88.
0D]	1A	1r	1f
.	1A	1d	1f
=89	=89	=89	=89
1r	1B-	1d	1f
1D	1A	1d	1f
=90.	=90.	=90.	=90.
1GG	0B-i	1d	1g
1GG	.	1G	1g
=91	=91	=91	=91
1FF	[0A	1c	0a
1FF	.	2d\	.
.	.	[2c\	.
=92.	=92.	=92.	=92.
1FF	0A]	2c\]	1a
.	.	1f	.
1FF	.	.	2a/
.	.	4e\	[2a/
.	.	4d\	.
=93	=93	=93	=93
[0FF	1A	1c	2a/]
.	.	.	4g/
.	.	.	4f/
.	2A/	1c	[1cc
.	[2A/	.	.
=94.	=94.	=94.	=94.
0FF]	2A/]	1.f	2cc\]
.	4G/	.	2b\
.	4F/	.	.
.	[1c	.	1a
.	.	4e\	.
.	.	4d\	.
=95	=95	=95	=95
0C	2c\]	[0e	1g
.	2B\	.	.
.	1A	.	1r
=96.	=96.	=96.	=96.
0C	0G	0e]	1r
.	.	.	2r
.	.	.	[2c/
=97	=97	=97	=97
2.C/	1c	0r	4c/]
.	.	.	4d/
.	.	.	4e/
4D\	.	.	4f/
2E\	2.c\	.	2g/
2F\	.	.	2a/
.	4B\	.	.
=98.	=98.	=98.	=98.
2.G\	2G/	0r	2.b\
.	2d\	.	.
8F\L	.	.	8a/L
8G\J	.	.	8b/J
2A\	2c\	.	2cc\
2G\	[2d\	.	[2b\
=99	=99	=99	=99
1A	4d\]	0r	2b\]
.	4c\	.	.
.	2A/	.	2.a/
1E	1B	.	.
.	.	.	4g#i/
.	.	.	2g#i/
=100.	=100.	=100.	=100.
1AA	2A/	2r	[0a
.	1F	2c\	.
1r	.	2d\	.
.	4E/	4c\	.
.	4D/	4B\	.
=101	=101	=101	=101
0AA	2E/	2c\	0a]
.	1D	2d\	.
.	.	2f\	.
.	2C/	[2e\	.
=102.	=102.	=102.	=102.
1D	1D	2e\]	1r
.	.	2.d\	.
1AA	1E	.	1a
.	.	4c#i\	.
.	.	2c#i\	.
=103	=103	=103	=103
1r	0D	0d	2a/
.	.	.	1f
1D	.	.	.
.	.	.	4e/
.	.	.	4d/
=104.	=104.	=104.	=104.
0AA	1r	1r	0e
.	1A	1c	.
=105	=105	=105	=105
0D	0A	0d	0f
=106.	=106.	=106.	=106.
[0GG	[0B-i	0d	1.g
.	.	.	2f/
=107	=107	=107	=107
0GG]	0B-]	0G	2e/
.	.	.	4d/
.	.	.	4c/
.	.	.	1d
=108.	=108.	=108.	=108.
1r	1.A	0r	[0c
1C	.	.	.
.	4G/	.	.
.	4F/	.	.
=109	=109	=109	=109
1.C	2E/	0r	0c]
.	2A/	.	.
.	2A/	.	.
2BB/	[2G/	.	.
=110.	=110.	=110.	=110.
2AA/	2G/]	1r	0r
4GG/	2.F/	.	.
4FF/	.	.	.
1GG	.	1G	.
.	4E/	.	.
.	2E/	.	.
=111	=111	=111	=111
[0FF	[0F	1A	1r
.	.	1A	1cc
=112.	=112.	=112.	=112.
0FF]	0F]	1A	1.cc
.	.	[1c	.
.	.	.	2b\
=113	=113	=113	=113
1r	0r	2c\]	2a/
.	.	4B\	4g/
.	.	4A/	4f/
2r	.	4B\	4g/
.	.	4A/	4f/
2FF/	.	[2c\	2a/
=114.	=114.	=114.	=114.
2AA/	0r	2c\]	4g/
.	.	.	4f/
2BB/	.	4B\	1f
.	.	4A/	.
1C	.	1G	.
.	.	.	2e/
=115	=115	=115	=115
1FF	1.A	1F	1f
1F	.	2r	1f
.	4G/	2c\	.
.	4F/	.	.
=116.	=116.	=116.	=116.
2.C/	1E	1c	2g/
.	.	.	1e
4BB/	.	.	.
1AA	1C	1c	.
.	.	.	2f/
=117	=117	=117	=117
1GG	2D/	2B-i\	2g/
.	2.G/	2G/	2e/
1D	.	1A	2f/
.	4F/	.	.
.	2F/	.	2d/
=118.	=118.	=118.	=118.
1r	4G/	1B-i	4e/
.	4F/	.	4d/
.	4E/	.	4c#i/
.	4D/	.	4B/
1AA	1E	1A	1c#i
=119	=119	=119	=119
1.BB-	[0Dl	1.F	[0dl
4AA/	.	2G/	.
4GG/	.	.	.
=120.	=120.	=120.	=120.
1FF	0D_	1A	0d_
1GG	.	1B-i	.
=121	=121	=121	=121
*^	*	*	*
0DDl\	0Dl/	0D]	0Al	0d]
*v	*v	*	*	*
==	==	==	==
*-	*-	*-	*-
!!!RDF**kern: l=long note in original notation
!!!RDF**kern: i=editorial accidental
!!!ENC:	Chris Gage 06-11-2013
!!!END:	2013/08/05/
!!!EED:	Jesse Rodin
!!!EEV:	2013/08/06/
!!!ONB:	Translated from MusicXML and edited on 2013/08/06/ by Craig Sapp
!!muse2ps: T^@{OPR}^u^@{ONM}{. }@{OTL}^C^@{COM}^i2I150v85,85,85,150Q8c90
